X: 11109
T: Duke Of Edinburgh, The
R: strathspey
M: 4/4
K: Amixolydian
|:A>Ae>A c>BA>c|e2 a>e f>ec<e|d2 f>d c2 a>c|B>dc>e d/c/B/A/ G>B|
A<Ae>A c>BA>c|e2 a>e f>ec<e|d>ef>d e>ca>f|1 e>cd>B A>AA>a:|2 e>cd>B A>AA>d||
|:c<ee>A c<ef>e|c<ea>e f>ec>d|c<ee>A (3cde a>c|B>dc>e d/c/B/A/ G>B|
(3cde e>A (3cde f>e|(3cde a>e f>ec>e|d>ef>d e>ca>f|1 e>cd>B A>AA>d:|2 e>cd>B A>A A2||

